X: 1
T: A Scone For Breakfast
R: reel
M: 4/4
L: 1/8
K: Gmaj
GFGD EDGB|dBeB dBAB|GFGD EDGB|cABG AGEF|
GFGD EDGB|dBeB d2ef|gfge dBGB|ABAG EDEF:|
GABd gddd|edBd edBA|GABd g2bg|agef g2ga|
bggg agef|gfge dBAB|GEDE GBeB|dBAB G2zz:|

